apps/app.mento.org/public/tokens/COPm.svg

<svg width="220" height="220" viewBox="0 0 220 220" fill="none" xmlns="http://www.w3.org/2000/svg">
<path d="M110 220C170.751 220 220 170.751 220 110C220 49.2487 170.751 0 110 0C49.2487 0 0 49.2487 0 110C0 170.751 49.2487 220 110 220Z" fill="#510DC1"/>
<path d="M110 23C158.049 23 197 61.9512 197 110C197 158.049 158.049 197 110 197C61.9512 197 23 158.049 23 110C23 61.9512 61.9512 23 110 23Z" stroke="url(#paint0_linear_2057_417)" stroke-width="36"/>
<path d="M110 202C160.81 202 202 160.81 202 110C202 59.1898 160.81 18 110 18C59.1898 18 18 59.1898 18 110C18 160.81 59.1898 202 110 202Z" fill="#510DC1"/>
<path d="M147.598 139.067V82.9375H170.832C184.252 82.9375 191 90.8112 191 101.101C191 111.314 184.252 119.188 170.832 119.188H157.873V139.067H147.598ZM157.873 110.067H170.296C177.274 110.067 180.571 106.714 180.571 101.101C180.571 95.4886 177.274 92.0585 170.296 92.0585H157.873V110.067Z" fill="#E6E0FF"/>
<path d="M113.063 140C95.1192 140 85.7639 126.747 85.7639 111C85.7639 95.2527 95.1192 82 113.063 82C130.93 82 140.362 95.2527 140.362 111C140.362 126.747 130.93 140 113.063 140ZM96.4994 111C96.4994 121.602 101.484 130.645 113.063 130.645C124.642 130.645 129.626 121.602 129.626 111C129.626 100.398 124.642 91.3548 113.063 91.3548C101.484 91.3548 96.4994 100.398 96.4994 111Z" fill="#E6E0FF"/>
<path d="M56.2989 140C38.3552 140 29 126.747 29 111C29 95.2527 38.3552 82 56.2989 82C69.8717 82 78.7668 90.8091 80.6072 102.581H70.1784C68.7981 95.9543 63.7371 91.3548 56.2989 91.3548C44.7199 91.3548 39.7355 100.398 39.7355 111C39.7355 121.602 44.7199 130.645 56.2989 130.645C64.2739 130.645 69.2582 125.266 70.4851 117.938H80.8373C79.3803 130.489 70.4851 140 56.2989 140Z" fill="#E6E0FF"/>
<defs>
<linearGradient id="paint0_linear_2057_417" x1="110" y1="5" x2="110" y2="215" gradientUnits="userSpaceOnUse">
<stop stop-color="#FECA00"/>
<stop offset="0.41" stop-color="#FECA00"/>
<stop offset="1" stop-color="#FF0000"/>
</linearGradient>
</defs>
</svg>

<svg xmlns="http://www.w3.org/2000/svg" width="220" height="220" fill="none" viewBox="0 0 220 220"><path fill="#510dc1" d="M110 220c60.751 0 110-49.249 110-110S170.751 0 110 0 0 49.249 0 110s49.249 110 110 110"/><path stroke="url(#a)" stroke-width="36" d="M110 23c48.049 0 87 38.951 87 87s-38.951 87-87 87-87-38.951-87-87 38.951-87 87-87Z"/><path fill="#510dc1" d="M110 202c50.81 0 92-41.19 92-92s-41.19-92-92-92-92 41.19-92 92 41.19 92 92 92"/><path fill="#e6e0ff" d="M147.598 139.067v-56.13h23.234c13.42 0 20.168 7.874 20.168 18.164 0 10.213-6.748 18.087-20.168 18.087h-12.959v19.879zm10.275-29h12.423c6.978 0 10.275-3.353 10.275-8.966s-3.297-9.043-10.275-9.043h-12.423zM113.063 140c-17.944 0-27.3-13.253-27.3-29s9.356-29 27.3-29c17.867 0 27.299 13.253 27.299 29s-9.432 29-27.299 29m-16.564-29c0 10.602 4.985 19.645 16.564 19.645s16.563-9.043 16.563-19.645-4.984-19.645-16.563-19.645S96.499 100.398 96.499 111m-40.2 29C38.355 140 29 126.747 29 111s9.355-29 27.299-29c13.573 0 22.468 8.81 24.308 20.581H70.178c-1.38-6.627-6.44-11.226-13.88-11.226-11.578 0-16.562 9.043-16.562 19.645s4.984 19.645 16.563 19.645c7.975 0 12.96-5.379 14.186-12.707h10.352C79.38 130.489 70.485 140 56.3 140"/><defs><linearGradient id="a" x1="110" x2="110" y1="5" y2="215" gradientUnits="userSpaceOnUse"><stop stop-color="#feca00"/><stop offset=".41" stop-color="#feca00"/><stop offset="1" stop-color="red"/></linearGradient></defs></svg>
